src/assets/img/icons/dusk/svg/browser-window.svg

<svg height="128" viewBox="0 0 64 64" width="128" xmlns="http://www.w3.org/2000/svg"><rect fill="#c5e4fa" height="46" rx="2" width="58" x="3" y="9"/><path d="m5 9h54a2 2 0 0 1 2 2v10a0 0 0 0 1 0 0h-58a0 0 0 0 1 0 0v-10a2 2 0 0 1 2-2z" fill="#ced8ed"/><path d="m61 21v16.68l-17.32 17.32h-19.25l34-34z" fill="#e3f2ff"/><path d="m54.52 21-34 34h-7.7l34-34z" fill="#e3f2ff"/><path d="m42.4 21-34 34h-1.28l34-34z" fill="#e3f2ff"/><path d="m27 13h30v4h-30z" fill="#c5e4fa"/><path d="m59 8h-54a3 3 0 0 0 -3 3v42a3 3 0 0 0 3 3h54a3 3 0 0 0 3-3v-42a3 3 0 0 0 -3-3zm1 45a1 1 0 0 1 -1 1h-54a1 1 0 0 1 -1-1v-31h56zm0-33h-56v-9a1 1 0 0 1 1-1h54a1 1 0 0 1 1 1z" fill="#8d6c9f"/><circle cx="8" cy="15" fill="#ed7899" r="2"/><circle cx="14" cy="15" fill="#ffeb9b" r="2"/><circle cx="20" cy="15" fill="#72caaf" r="2"/><g fill="#8d6c9f"><path d="m17 52a1 1 0 0 0 1-1v-2a1 1 0 0 0 -2 0v2a1 1 0 0 0 1 1z"/><path d="m12 52a1 1 0 0 0 1-1v-2a1 1 0 0 0 -2 0v2a1 1 0 0 0 1 1z"/><path d="m7 52a1 1 0 0 0 1-1v-2a1 1 0 0 0 -2 0v2a1 1 0 0 0 1 1z"/><path d="m22 52a1 1 0 0 0 1-1v-2a1 1 0 0 0 -2 0v2a1 1 0 0 0 1 1z"/><path d="m27 52a1 1 0 0 0 1-1v-2a1 1 0 0 0 -2 0v2a1 1 0 0 0 1 1z"/><path d="m32 52a1 1 0 0 0 1-1v-2a1 1 0 0 0 -2 0v2a1 1 0 0 0 1 1z"/><path d="m37 52a1 1 0 0 0 1-1v-2a1 1 0 0 0 -2 0v2a1 1 0 0 0 1 1z"/><path d="m42 52a1 1 0 0 0 1-1v-2a1 1 0 0 0 -2 0v2a1 1 0 0 0 1 1z"/><path d="m47 52a1 1 0 0 0 1-1v-2a1 1 0 0 0 -2 0v2a1 1 0 0 0 1 1z"/><path d="m52 52a1 1 0 0 0 1-1v-2a1 1 0 0 0 -2 0v2a1 1 0 0 0 1 1z"/><path d="m57 52a1 1 0 0 0 1-1v-2a1 1 0 0 0 -2 0v2a1 1 0 0 0 1 1z"/><path d="m56 12h-28a2 2 0 0 0 -2 2v2a2 2 0 0 0 2 2h28a2 2 0 0 0 2-2v-2a2 2 0 0 0 -2-2zm-28 4v-2h28v2z"/></g><path d="m19.66 25.83 1.24 2.27 2.27 1.24-2.27 1.23-1.24 2.27-1.23-2.27-2.27-1.23 2.27-1.24z" fill="#fff8f8"/><path d="m50.58 25 .86 1.56 1.56.86-1.56.85-.86 1.57-.85-1.57-1.57-.85 1.57-.86z" fill="#fff8f8"/><path d="m33.81 42.54.58 1.07 1.07.58-1.07.58-.58 1.07-.58-1.07-1.07-.58 1.07-.58z" fill="#fff8f8"/></svg>

<svg xmlns="http://www.w3.org/2000/svg" id="Layer_1" data-name="Layer 1" viewBox="0 0 64 64" width="128" height="128"><title>Icons8 RSL Colored Part 7</title><rect x="3" y="9" width="58" height="46" rx="2" ry="2" style="fill:#c5e4fa;"/><path d="M5,9H59a2,2,0,0,1,2,2V21a0,0,0,0,1,0,0H3a0,0,0,0,1,0,0V11A2,2,0,0,1,5,9Z" style="fill:#ced8ed;"/><polygon points="61 21 61 37.68 43.68 55 24.43 55 58.43 21 61 21" style="fill:#e3f2ff;"/><polygon points="54.52 21 20.52 55 12.82 55 46.82 21 54.52 21" style="fill:#e3f2ff;"/><polygon points="42.4 21 8.4 55 7.12 55 41.12 21 42.4 21" style="fill:#e3f2ff;"/><rect x="27" y="13" width="30" height="4" style="fill:#c5e4fa;"/><path d="M59,8H5a3,3,0,0,0-3,3V53a3,3,0,0,0,3,3H59a3,3,0,0,0,3-3V11A3,3,0,0,0,59,8Zm1,45a1,1,0,0,1-1,1H5a1,1,0,0,1-1-1V22H60Zm0-33H4V11a1,1,0,0,1,1-1H59a1,1,0,0,1,1,1Z" style="fill:#8d6c9f;"/><circle cx="8" cy="15" r="2" style="fill:#ed7899;"/><circle cx="14" cy="15" r="2" style="fill:#ffeb9b;"/><circle cx="20" cy="15" r="2" style="fill:#72caaf;"/><path d="M17,52a1,1,0,0,0,1-1V49a1,1,0,0,0-2,0v2A1,1,0,0,0,17,52Z" style="fill:#8d6c9f;"/><path d="M12,52a1,1,0,0,0,1-1V49a1,1,0,0,0-2,0v2A1,1,0,0,0,12,52Z" style="fill:#8d6c9f;"/><path d="M7,52a1,1,0,0,0,1-1V49a1,1,0,0,0-2,0v2A1,1,0,0,0,7,52Z" style="fill:#8d6c9f;"/><path d="M22,52a1,1,0,0,0,1-1V49a1,1,0,0,0-2,0v2A1,1,0,0,0,22,52Z" style="fill:#8d6c9f;"/><path d="M27,52a1,1,0,0,0,1-1V49a1,1,0,0,0-2,0v2A1,1,0,0,0,27,52Z" style="fill:#8d6c9f;"/><path d="M32,52a1,1,0,0,0,1-1V49a1,1,0,0,0-2,0v2A1,1,0,0,0,32,52Z" style="fill:#8d6c9f;"/><path d="M37,52a1,1,0,0,0,1-1V49a1,1,0,0,0-2,0v2A1,1,0,0,0,37,52Z" style="fill:#8d6c9f;"/><path d="M42,52a1,1,0,0,0,1-1V49a1,1,0,0,0-2,0v2A1,1,0,0,0,42,52Z" style="fill:#8d6c9f;"/><path d="M47,52a1,1,0,0,0,1-1V49a1,1,0,0,0-2,0v2A1,1,0,0,0,47,52Z" style="fill:#8d6c9f;"/><path d="M52,52a1,1,0,0,0,1-1V49a1,1,0,0,0-2,0v2A1,1,0,0,0,52,52Z" style="fill:#8d6c9f;"/><path d="M57,52a1,1,0,0,0,1-1V49a1,1,0,0,0-2,0v2A1,1,0,0,0,57,52Z" style="fill:#8d6c9f;"/><path d="M56,12H28a2,2,0,0,0-2,2v2a2,2,0,0,0,2,2H56a2,2,0,0,0,2-2V14A2,2,0,0,0,56,12ZM28,16V14H56v2Z" style="fill:#8d6c9f;"/><polygon points="19.66 25.83 20.9 28.1 23.17 29.34 20.9 30.57 19.66 32.84 18.43 30.57 16.16 29.34 18.43 28.1 19.66 25.83" style="fill:#fff8f8;"/><polygon points="50.58 25 51.44 26.56 53 27.42 51.44 28.27 50.58 29.84 49.73 28.27 48.16 27.42 49.73 26.56 50.58 25" style="fill:#fff8f8;"/><polygon points="33.81 42.54 34.39 43.61 35.46 44.19 34.39 44.77 33.81 45.84 33.23 44.77 32.16 44.19 33.23 43.61 33.81 42.54" style="fill:#fff8f8;"/></svg>
